Yaru++/apps/16/org.gnome.Geary.svg

<svg height="16" viewBox="0 0 16 16" width="16" xmlns="http://www.w3.org/2000/svg"><g fill="#808080" transform="translate(-280.98275 206.99542)"><g transform="matrix(1.1666512 0 0 .93633644 -48.187204 -12.526047)"><path d="m283.51628-203.15365a.51469507.51469507 0 0 0 -.34779.88656l3.8739 3.79147c.56433.56433 1.35741.73141 2.07667.70362.71927-.0278 1.3923-.22028 1.84548-.67346l-.002.004 3.86988-3.81963a.51469507.51469507 0 1 0 -.72171-.73176l-3.87189 3.81963h-.002c-.13638.13637-.6379.35181-1.15795.37191-.52004.0201-1.02997-.12333-1.30871-.40207l-.002-.002-3.87993-3.79752a.51469507.51469507 0 0 0 -.37191-.15077z"/><path d="m291.43496-199.99542a.51469507.51469507 0 0 0 -.30356.92273l2.7823 2.19126a.51469507.51469507 0 1 0 .63525-.80815l-2.78028-2.19125a.51469507.51469507 0 0 0 -.33371-.11459z"/><path d="m286.30862-199.99542a.51469507.51469507 0 0 0 -.31762.11459l-2.78028 2.19125a.51469507.51469507 0 1 0 .63727.80815l2.78028-2.19126a.51469507.51469507 0 0 0 -.31965-.92273z"/></g><path d="m3 1c-1.108 0-2 .892-2 2v10c0 1.108.892 2 2 2h10c1.108 0 2-.892 2-2v-10c0-1.108-.892-2-2-2zm.7148438 1h8.5703122c.949715 0 1.714844.7651289 1.714844 1.7148438v8.2851562h-3v1h-6v-1h-3v-8.2851562c0-.9497151.7651289-1.7148438 1.7148438-1.7148438z" transform="translate(280.98275 -206.99542)"/></g></svg>

<?xml version="1.0" encoding="UTF-8" standalone="no"?>
<svg
   xmlns:osb="http://www.openswatchbook.org/uri/2009/osb"
   xmlns:dc="http://purl.org/dc/elements/1.1/"
   xmlns:cc="http://creativecommons.org/ns#"
   xmlns:rdf="http://www.w3.org/1999/02/22-rdf-syntax-ns#"
   xmlns:svg="http://www.w3.org/2000/svg"
   xmlns="http://www.w3.org/2000/svg"
   xmlns:sodipodi="http://sodipodi.sourceforge.net/DTD/sodipodi-0.dtd"
   xmlns:inkscape="http://www.inkscape.org/namespaces/inkscape"
   width="16"
   viewBox="0 0 16 16"
   version="1.1"
   id="svg7384"
   height="16"
   sodipodi:docname="org.gnome.Geary-symbolic.svg"
   inkscape:version="0.92.5 (2060ec1f9f, 2020-04-08)">
  <sodipodi:namedview
     pagecolor="#ffffff"
     bordercolor="#666666"
     borderopacity="1"
     objecttolerance="10"
     gridtolerance="10"
     guidetolerance="10"
     inkscape:pageopacity="0"
     inkscape:pageshadow="2"
     inkscape:window-width="1920"
     inkscape:window-height="1016"
     id="namedview15"
     showgrid="true"
     inkscape:zoom="42.628437"
     inkscape:cx="8.01747"
     inkscape:cy="6.6775658"
     inkscape:window-x="0"
     inkscape:window-y="27"
     inkscape:window-maximized="1"
     inkscape:current-layer="layer9">
    <inkscape:grid
       type="xygrid"
       id="grid831" />
  </sodipodi:namedview>
  <metadata
     id="metadata90">
    <rdf:RDF>
      <cc:Work
         rdf:about="">
        <dc:format>image/svg+xml</dc:format>
        <dc:type
           rdf:resource="http://purl.org/dc/dcmitype/StillImage" />
        <dc:title>Gnome Symbolic Icon Theme</dc:title>
      </cc:Work>
    </rdf:RDF>
  </metadata>
  <title
     id="title9167">Gnome Symbolic Icon Theme</title>
  <defs
     id="defs7386">
    <linearGradient
       osb:paint="solid"
       id="linearGradient7212">
      <stop
         style="stop-color:#000000;stop-opacity:1;"
         offset="0"
         id="stop7214" />
    </linearGradient>
  </defs>
  <g
     transform="translate(-39.982551,-160.00458)"
     id="layer10" />
  <g
     transform="translate(-280.98275,206.99542)"
     style="display:inline;fill:#808080;fill-opacity:1"
     id="layer9">
    <g
       id="g847"
       transform="matrix(1.1666512,0,0,0.93633644,-48.187204,-12.526047)">
      <path
         inkscape:connector-curvature="0"
         style="color:#000000;font-style:normal;font-variant:normal;font-weight:normal;font-stretch:normal;font-size:medium;line-height:normal;font-family:sans-serif;font-variant-ligatures:normal;font-variant-position:normal;font-variant-caps:normal;font-variant-numeric:normal;font-variant-alternates:normal;font-feature-settings:normal;text-indent:0;text-align:start;text-decoration:none;text-decoration-line:none;text-decoration-style:solid;text-decoration-color:#000000;letter-spacing:normal;word-spacing:normal;text-transform:none;writing-mode:lr-tb;direction:ltr;text-orientation:mixed;dominant-baseline:auto;baseline-shift:baseline;text-anchor:start;white-space:normal;shape-padding:0;clip-rule:nonzero;display:inline;overflow:visible;visibility:visible;opacity:1;isolation:auto;mix-blend-mode:normal;color-interpolation:sRGB;color-interpolation-filters:linearRGB;solid-color:#000000;solid-opacity:1;vector-effect:none;fill:#808080;fill-opacity:1;fill-rule:nonzero;stroke:none;stroke-width:1.02928722;stroke-linecap:round;stroke-linejoin:miter;stroke-miterlimit:4;stroke-dasharray:none;stroke-dashoffset:0;stroke-opacity:1;marker:none;paint-order:normal;color-rendering:auto;image-rendering:auto;shape-rendering:auto;text-rendering:auto;enable-background:accumulate"
         d="m 283.51628,-203.15365 a 0.51469507,0.51469507 0 0 0 -0.34779,0.88656 l 3.8739,3.79147 c 0.56433,0.56433 1.35741,0.73141 2.07667,0.70362 0.71927,-0.0278 1.3923,-0.22028 1.84548,-0.67346 l -0.002,0.004 3.86988,-3.81963 a 0.51469507,0.51469507 0 1 0 -0.72171,-0.73176 l -3.87189,3.81963 h -0.002 c -0.13638,0.13637 -0.6379,0.35181 -1.15795,0.37191 -0.52004,0.0201 -1.02997,-0.12333 -1.30871,-0.40207 l -0.002,-0.002 -3.87993,-3.79752 a 0.51469507,0.51469507 0 0 0 -0.37191,-0.15077 z"
         id="path5946" />
      <path
         inkscape:connector-curvature="0"
         style="color:#000000;font-style:normal;font-variant:normal;font-weight:normal;font-stretch:normal;font-size:medium;line-height:normal;font-family:sans-serif;font-variant-ligatures:normal;font-variant-position:normal;font-variant-caps:normal;font-variant-numeric:normal;font-variant-alternates:normal;font-feature-settings:normal;text-indent:0;text-align:start;text-decoration:none;text-decoration-line:none;text-decoration-style:solid;text-decoration-color:#000000;letter-spacing:normal;word-spacing:normal;text-transform:none;writing-mode:lr-tb;direction:ltr;text-orientation:mixed;dominant-baseline:auto;baseline-shift:baseline;text-anchor:start;white-space:normal;shape-padding:0;clip-rule:nonzero;display:inline;overflow:visible;visibility:visible;opacity:1;isolation:auto;mix-blend-mode:normal;color-interpolation:sRGB;color-interpolation-filters:linearRGB;solid-color:#000000;solid-opacity:1;vector-effect:none;fill:#808080;fill-opacity:1;fill-rule:nonzero;stroke:none;stroke-width:1.02928722;stroke-linecap:round;stroke-linejoin:miter;stroke-miterlimit:4;stroke-dasharray:none;stroke-dashoffset:0;stroke-opacity:1;marker:none;paint-order:normal;color-rendering:auto;image-rendering:auto;shape-rendering:auto;text-rendering:auto;enable-background:accumulate"
         d="m 291.43496,-199.99542 a 0.51469507,0.51469507 0 0 0 -0.30356,0.92273 l 2.7823,2.19126 a 0.51469507,0.51469507 0 1 0 0.63525,-0.80815 l -2.78028,-2.19125 a 0.51469507,0.51469507 0 0 0 -0.33371,-0.11459 z"
         id="path5950" />
      <path
         inkscape:connector-curvature="0"
         style="color:#000000;font-style:normal;font-variant:normal;font-weight:normal;font-stretch:normal;font-size:medium;line-height:normal;font-family:sans-serif;font-variant-ligatures:normal;font-variant-position:normal;font-variant-caps:normal;font-variant-numeric:normal;font-variant-alternates:normal;font-feature-settings:normal;text-indent:0;text-align:start;text-decoration:none;text-decoration-line:none;text-decoration-style:solid;text-decoration-color:#000000;letter-spacing:normal;word-spacing:normal;text-transform:none;writing-mode:lr-tb;direction:ltr;text-orientation:mixed;dominant-baseline:auto;baseline-shift:baseline;text-anchor:start;white-space:normal;shape-padding:0;clip-rule:nonzero;display:inline;overflow:visible;visibility:visible;opacity:1;isolation:auto;mix-blend-mode:normal;color-interpolation:sRGB;color-interpolation-filters:linearRGB;solid-color:#000000;solid-opacity:1;vector-effect:none;fill:#808080;fill-opacity:1;fill-rule:nonzero;stroke:none;stroke-width:1.02928722;stroke-linecap:round;stroke-linejoin:miter;stroke-miterlimit:4;stroke-dasharray:none;stroke-dashoffset:0;stroke-opacity:1;marker:none;paint-order:normal;color-rendering:auto;image-rendering:auto;shape-rendering:auto;text-rendering:auto;enable-background:accumulate"
         d="m 286.30862,-199.99542 a 0.51469507,0.51469507 0 0 0 -0.31762,0.11459 l -2.78028,2.19125 a 0.51469507,0.51469507 0 1 0 0.63727,0.80815 l 2.78028,-2.19126 a 0.51469507,0.51469507 0 0 0 -0.31965,-0.92273 z"
         id="path5952" />
    </g>
    <path
       style="opacity:1;fill:#808080;fill-opacity:1;stroke:none;stroke-width:2;stroke-linejoin:round;stroke-miterlimit:4;stroke-dasharray:none;stroke-opacity:1"
       d="M 3 1 C 1.892 1 1 1.892 1 3 L 1 13 C 1 14.108 1.892 15 3 15 L 13 15 C 14.108 15 15 14.108 15 13 L 15 3 C 15 1.892 14.108 1 13 1 L 3 1 z M 3.7148438 2 L 12.285156 2 C 13.234871 2 14 2.7651289 14 3.7148438 L 14 12 L 11 12 L 11 13 L 5 13 L 5 12 L 2 12 L 2 3.7148438 C 2 2.7651287 2.7651289 2 3.7148438 2 z "
       transform="translate(280.98275,-206.99542)"
       id="rect833" />
  </g>
</svg>
